X:1
T:Eram quasi agnus - Viadana
T:James Gibb editions
T:#
%%score [ 1 { 2 | 3 } 4 ]
L:1/8
Q:1/4=200
M:none
K:F
V:1 treble nm="Soprano" snm="S"
V:2 treble nm="Alto I" snm="A"
V:3 treble 
V:4 treble-8 nm="Tenor" snm="T"
V:1
"^Eram quasi agnus innocens""^Ludovico da Viadana\n(1560-1627)" A8 A4 A4- | A4 A4 B4 B4 | %2
w: E- ram qua\-|* si a- gnus|
 A6 A2 A4 A4 | A4 B8 c4 | c4 c4 (c4 =B4) | c4 c4 d4 c4 | c8 c8 | z4 c4 c6 c2 | c4 c4 d4 c4 | %9
w: in- no- cens: di-|ctus sum ad|im- mo- lan\- *|dum, et ne- sci-|e- bam:|con- si- li-|um fe- ce- runt|
 c2 c2 B4 B4 A4 | A4 B4 B4 c4 | B4 d4 (d4 ^c4) | d16 || c8 d8 | c4 A4 A4 A4 | B8 A4 c4 | %16
w: i- ni- mi- ci me-|i ad- ver- sum|me, di- cen\- *|tes:|Ve- ni-|te mit- ta- mus|li- gnum in|
 c4 c4 (c4 =B4) | c8 z4 c4 | c4 c4 B4 B4 | A8 B4 c4 | A8 A4 B4 | (A8 G6) G2 | A16 || A16 | %24
w: pa- nem e\- *|ius, et|e- ra- da- mus|e- um de|ter- ra vi-|ven\- * ti-|um.|Omnes~inimici~mei~adversum~me~cogitabant|
 A4 c4 (c4 =B4) | c16 || c16 | d4 d4 c8- | c8 c16 || c8 d8 | c4 A4 A4 A4 | B8 A4 c4 | %32
w: ma- la mi\- *|hi:|verbum~iniquum~mandaverunt~adversum|me, di- cen\-|* tes:|Ve- ni-|te mit- ta- mus|li- gnum in|
 c4 c4 (c4 =B4) | c8 z4 c4 | c4 c4 B4 B4 | A8 B4[Q:1/4=198] c4 | %36
w: pa- nem e\- *|ius, et|e- ra- da- mus|e- um de|
[Q:1/4=192] A8[Q:1/4=187] A4[Q:1/4=184] B4 |[Q:1/4=179] (A8[Q:1/4=173] G6)[Q:1/4=170] G2 | %38
w: ter- ra vi-|ven\- * ti-|
[Q:1/4=170] A16 |] %39
w: um.|
V:2
 F8 F4 F4- | F4 F4 F4 G4 | E6 E2 E4 ^F4 | ^F4 G8 G4 | A4 E4 G8 | G4 G4 _B4 A4 | G8 A8 | %7
w: E- ram qua\-|* si a- gnus|in- no- cens: du-|ctus sum ad|im- mo- lan-|dum, et ne- sci-|e- bam:|
 z4 A4 A6 A2 | A4 A4 B4 A4 | G2 A2 F4 G4 E4 | F4 F4 G4 A4 | G4 F4 A8 | A16 || A8 B8 | A4 F4 F4 F4 | %15
w: con- si- li-|um fe- ce- runt|i- ni- mi- ci me-|i ad- ver- sum|me, di- cen-|tes:|Ve- ni-|te mit- ta- mus|
 G8 C4 A4 | A4 E4 G8 | G8 z4 G4 | G4 A4 F4 G4 | (E4 F4) G4 G4 | F8 F8 | F4 F8 E4 | F16 || F16 | %24
w: li- gnum in|pa- nem e-|ius, et|e- ra- da- mus|e\- * um de|ter- ra|vi- ven- ti-|um.|Omnes~inimici~mei~adversum~me~cogitabant|
 F4 E4 G8 | G16 || G16 | B8 A8 | G8 A16 || A8 B8 | A4 F4 F4 F4 | G8 C4 A4 | A4 E4 G8 | G8 z4 G4 | %34
w: ma- la mi-|hi:|verbum~iniquum~mandaverunt~adversum|me, di-|cen- tes:|Ve- ni-|te mit- ta- mus|li- gnum in|pa- nem e-|ius, et|
 G4 A4 F4 G4 | (E4 F4) G4 G4 | F8 F8 | F4 F8 E4 | F16 |] %39
w: e- ra- da- mus|e\- * um de|ter- ra|vi- ven- ti-|um.|
V:3
 C8 C4 C4- | C4 C4 D4 D4 | ^C6 C2 C4 D4 | D4 D8 E4 | C4 C4 D8 | E4 E4 F4 F4 | (F4 E4) F8 | %7
w: E- ram qua\-|* si a- gnus|in- no- cens: du-|ctus sum ad|im- mo- lan-|dum, et ne- sci-|e\- * bam:|
 z4 F4 F6 F2 | F4 F4 F4 F4 | E2 F2 D4 E4 C4 | C4 D4 D4 F4 | D4 D4 E8 | ^F16 || !courtesy!=F8 F8 | %14
w: con- si- li-|um fe- ce- runt|i- ni- mi- ci me-|i ad- ver- sum|me, di- cen-|tes:|Ve- ni-|
 F4 C4 C4 D4 | (D4 E4) F4 F4 | F4 C4 D8 | E8 z4 E4 | E4 F4 D4 E4 | C8 D4 E4 | C8 D4 D4 | C12 C4 | %22
w: te mit- ta- mus|li\- * gnum in|pa- nem e-|ius, et|e- ra- da- mus|e- um de|ter- ra vi-|ven- ti-|
 C16 || C16 | C4 C4 D8 | E16 || E16 | F4 G4 (E4 F4- | F4 E4 F16) || F8 F8 | F4 C4 C4 D4 | %31
w: um.|Omnes~inimici~mei~adversum~me~cogitabant|ma- la mi-|hi:|verbum~iniquum~mandaverunt~adversum|me, di- cen\- *|* * tes:|Ve- ni-|te mit- ta- mus|
 (D4 E4) F4 F4 | F4 C4 D8 | E8 z4 E4 | E4 F4 D4 E4 | C8 D4 E4 | C8 D4 D4 | C12 C4 | C16 |] %39
w: li\- * gnum in|pa- nem e-|ius, et|e- ra- da- mus|e- um de|ter- ra vi-|ven- ti-|um.|
V:4
 F8 F4 F4- | F4 F4 B4 G4 | A6 A2 A4 D4 | D4 G8 E4 | F4 A4 G8 | C4 c4 B4 F4 | c8 F8 | z4 F4 F6 F2 | %8
w: E- ram qua\-|* si a- gnus|in- no- cens: du-|ctus sum ad|im- mo- lan-|dum, et ne- sci-|e- bam:|con- si- li-|
 F4 F4 B4 F4 | c2 A2 B4 G4 A4 | F4 B4 G4 F4 | G4 B4 A8 | D16 || F8 B8 | F4 F4 F4 D4 | G8 F4 F4 | %16
w: um fe- ce- runt|i- ni- mi- ci me-|i ad- ver- sum|me, di- cen-|tes:|Ve- ni-|te mit- ta- mus|li- gnum in|
 F4 A4 G8 | C8 z4 c4 | c4 A4 B4 G4 | A8 G4 E4 | F8 D4 B,4 | F8 C8 | F16 || F16 | F4 A4 G8 | C16 || %26
w: pa- nem e-|ius, et|e- ra- da- mus|e- um de|ter- ra vi-|ven- ti-|um.|Omnes~inimici~mei~adversum~me~cogitabant|ma- la mi-|hi:|
 C16 | B4 G4 (A6 B2 | c8 F16) || F8 B8 | F4 F4 F4 D4 | G8 F4 F4 | F4 A4 G8 | C8 z4 c4 | %34
w: verbum~iniquum~mandaverunt~adversum|me, di- cen\- *|* tes:|Ve- ni-|te mit- ta- mus|li- gnum in|pa- nem e-|ius, et|
 c4 A4 B4 G4 | A8 G4 E4 | F8 D4 B,4 | F8 C8 | F16 |] %39
w: e- ra- da- mus|e- um de|ter- ra vi-|ven- ti-|um.|

